images/dsr-logo-blocks.svg

<svg xmlns="http://www.w3.org/2000/svg" width="120" height="121" viewBox="0 0 120 121">
  <g fill="none" fill-rule="evenodd" transform="translate(0 -1)">
    <polygon fill="#73FFE1" points="0 32 60 62 60 122 0 92"/>
    <path fill="#000" d="M18.942,91.471 L18.942,53.779 L30.66,59.638 C40.434,64.525 45.186,73.543 45.186,85.747 C45.186,97.951 40.434,102.217 30.66,97.33 L18.942,91.471 Z M25.908,89.284 L30.174,91.417 C35.358,94.009 37.788,91.714 37.788,85.288 L37.788,78.754 C37.788,72.382 35.358,67.657 30.174,65.065 L25.908,62.932 L25.908,89.284 Z"/>
    <polygon fill="#B973FF" points=".02 32.018 60.001 .996 119.997 32.018 60.001 62.007"/>
    <path fill="#000" d="M80.7419645,40.9326381 C89.94798,36.2999719 90.0892868,31.2807263 82.9030837,27.6053285 C77.0135509,24.6317294 69.776419,24.2471717 61.963459,26.8928984 L57.2942024,28.5253344 C52.461461,30.2776214 49.4224016,30.3268564 46.3029844,28.7812104 C42.6101792,26.9633455 42.725377,24.938519 46.685936,22.8642886 C50.4273305,20.9371528 54.9264067,20.3364441 59.5802782,20.6175311 L58.863492,16.1056962 C52.5547623,15.6345563 45.9232254,16.7208574 40.0918354,19.7193214 C32.1364742,23.9351106 31.8902434,28.7299646 39.839721,32.6385933 C45.5001376,35.4587371 52.5443015,36.3104061 60.5431923,33.3568721 L65.1631668,31.6575197 C69.93973,29.912621 73.0432979,29.890491 76.1279854,31.4573184 C79.8382921,33.3548206 79.5208024,35.6305148 75.2017642,37.8299557 C71.5210109,39.7358999 66.7786875,40.6398629 60.7722907,40.3920944 L61.1733865,44.9143304 C67.5654318,45.3370173 74.4068087,44.2244493 80.7419645,40.9326381 Z"/>
    <polygon fill="#000" points="60 62 120 32 120 92 60 122"/>
    <path fill="#FFF" d="M86.394,84.169 L86.394,98.803 L79.32,102.34 L79.32,64.648 L93.63,57.493 C100.92,53.848 104.97,56.305 104.97,63.487 C104.97,68.995 102.27,74.395 97.572,77.77 L105.618,89.191 L97.842,93.079 L90.66,82.036 L86.394,84.169 Z M86.394,78.661 L92.172,75.772 C95.952,73.882 97.518,71.587 97.518,68.239 L97.518,66.187 C97.518,62.839 95.952,62.11 92.172,64 L86.394,66.889 L86.394,78.661 Z"/>
  </g>
</svg>

<svg xmlns="http://www.w3.org/2000/svg" width="120" height="121" viewBox="0 0 120 121"><g fill="none" fill-rule="evenodd" transform="translate(0 -1)"><path fill="#73FFE1" d="M0 32L60 62 60 122 0 92z"/><path fill="#000" d="M18.942 91.471V53.779l11.718 5.859c9.774 4.887 14.526 13.905 14.526 26.109 0 12.204-4.752 16.47-14.526 11.583l-11.718-5.859zm6.966-2.187l4.266 2.133c5.184 2.592 7.614.297 7.614-6.129v-6.534c0-6.372-2.43-11.097-7.614-13.689l-4.266-2.133v26.352z"/><path fill="#B973FF" d="M0.02 32.018L60.001 0.996 119.997 32.018 60.001 62.007z"/><path fill="#000" d="M80.742 40.933c9.206-4.633 9.347-9.652 2.161-13.328-5.89-2.973-13.127-3.358-20.94-.712l-4.669 1.632c-4.833 1.753-7.872 1.802-10.991.256-3.693-1.818-3.578-3.842.383-5.917 3.741-1.927 8.24-2.528 12.894-2.246l-.717-4.512c-6.308-.471-12.94.615-18.771 3.613-7.956 4.216-8.202 9.011-.252 12.92 5.66 2.82 12.704 3.671 20.703.718l4.62-1.7c4.777-1.744 7.88-1.767 10.965-.2 3.71 1.898 3.393 4.174-.926 6.373-3.681 1.906-8.423 2.81-14.43 2.562l.401 4.522c6.392.423 13.234-.69 19.569-3.981z"/><path fill="#000" d="M60 62L120 32 120 92 60 122z"/><path fill="#FFF" d="M86.394 84.169v14.634l-7.074 3.537V64.648l14.31-7.155c7.29-3.645 11.34-1.188 11.34 5.994 0 5.508-2.7 10.908-7.398 14.283l8.046 11.421-7.776 3.888-7.182-11.043-4.266 2.133zm0-5.508l5.778-2.889c3.78-1.89 5.346-4.185 5.346-7.533v-2.052c0-3.348-1.566-4.077-5.346-2.187l-5.778 2.889v11.772z"/></g></svg>
